public/icons/markets/net-apy-icon.svg

<svg width="24" height="24" viewBox="0 0 24 24" fill="none" xmlns="http://www.w3.org/2000/svg">
<path d="M8.66667 19.7778V13.1111C8.66667 12.5217 8.43254 11.9565 8.01579 11.5398C7.59905 11.123 7.03381 10.8889 6.44444 10.8889H4.22222C3.63285 10.8889 3.06762 11.123 2.65087 11.5398C2.23413 11.9565 2 12.5217 2 13.1111V19.7778C2 20.3671 2.23413 20.9324 2.65087 21.3491C3.06762 21.7659 3.63285 22 4.22222 22H6.44444C7.03381 22 7.59905 21.7659 8.01579 21.3491C8.43254 20.9324 8.66667 20.3671 8.66667 19.7778ZM8.66667 19.7778V8.66667C8.66667 8.0773 8.90079 7.51207 9.31754 7.09532C9.73429 6.67857 10.2995 6.44444 10.8889 6.44444H13.1111C13.7005 6.44444 14.2657 6.67857 14.6825 7.09532C15.0992 7.51207 15.3333 8.0773 15.3333 8.66667V19.7778M8.66667 19.7778C8.66667 20.3671 8.90079 20.9324 9.31754 21.3491C9.73429 21.7659 10.2995 22 10.8889 22H13.1111C13.7005 22 14.2657 21.7659 14.6825 21.3491C15.0992 20.9324 15.3333 20.3671 15.3333 19.7778M15.3333 19.7778V4.22222C15.3333 3.63285 15.5675 3.06762 15.9842 2.65087C16.401 2.23413 16.9662 2 17.5556 2H19.7778C20.3671 2 20.9324 2.23413 21.3491 2.65087C21.7659 3.06762 22 3.63285 22 4.22222V19.7778C22 20.3671 21.7659 20.9324 21.3491 21.3491C20.9324 21.7659 20.3671 22 19.7778 22H17.5556C16.9662 22 16.401 21.7659 15.9842 21.3491C15.5675 20.9324 15.3333 20.3671 15.3333 19.7778Z" stroke="#A5A8B6" stroke-width="1.5" stroke-linecap="round" stroke-linejoin="round"/>
</svg>

<svg width="24" height="24" viewBox="0 0 24 24" fill="none" xmlns="http://www.w3.org/2000/svg"><path d="M8.667 19.778V13.11a2.222 2.222 0 0 0-2.223-2.222H4.222A2.222 2.222 0 0 0 2 13.11v6.667A2.222 2.222 0 0 0 4.222 22h2.222a2.222 2.222 0 0 0 2.223-2.222Zm0 0V8.667a2.222 2.222 0 0 1 2.222-2.223h2.222a2.222 2.222 0 0 1 2.222 2.223v11.11m-6.666 0A2.222 2.222 0 0 0 10.889 22h2.222a2.222 2.222 0 0 0 2.222-2.222m0 0V4.222A2.222 2.222 0 0 1 17.556 2h2.222A2.222 2.222 0 0 1 22 4.222v15.556A2.222 2.222 0 0 1 19.778 22h-2.222a2.222 2.222 0 0 1-2.223-2.222Z" stroke="#A5A8B6" stroke-width="1.5" stroke-linecap="round" stroke-linejoin="round"/></svg>
